;FLAVOR:Marlin
;TIME:94
;Filament used: 0.123819m
;Layer height: 0.2
;MINX:83.144
;MINY:82.886
;MINZ:0.3
;MAXX:116.847
;MAXY:117.114
;MAXZ:0.7
;Generated with Cura_SteamEngine main
M140 S60
M105
M190 S60
M104 S200
M105
M109 S200
M82 ;absolute extrusion mode
G21 ;metric values
G90 ;absolute positioning
M82 ;set extruder to absolute mode
M107 ;start with the fan off
G28 X0 Y0 ;move X/Y to min endstops
G28 Z0 ;move Z to min endstops
G1 Z15.0 F9000 ;move the platform down 15mm
G92 E0 ;zero the extruded length
G1 F200 E3 ;extrude 3mm of feed stock
G92 E0 ;zero the extruded length again
G1 F9000
;Put printing message on LCD screen
M117 Printing...
G92 E0
G92 E0
G1 F1500 E-6.5
;LAYER_COUNT:3
;LAYER:0
M107
G0 F3600 X85.576 Y85.027 Z0.3
G0 X83.144 Y90.674
;TYPE:SKIRT
G1 F1500 E0
G1 F1800 X83.185 Y89.886 E0.03937
G1 X83.306 Y89.105 E0.0788
G1 X83.505 Y88.341 E0.11818
G1 X83.78 Y87.601 E0.15757
G1 X84.129 Y86.892 E0.19699
G1 X84.547 Y86.223 E0.23635
G1 X85.031 Y85.599 E0.27575
G1 X85.576 Y85.027 E0.31517
G1 X86.176 Y84.513 E0.35458
G1 X86.824 Y84.063 E0.39394
G1 X87.515 Y83.68 E0.43336
G1 X88.241 Y83.369 E0.47276
G1 X88.995 Y83.134 E0.51216
G1 X89.768 Y82.975 E0.55154
G1 X90.944 Y82.886 E0.61037
G1 X93.658 Y82.886 E0.74578
G1 X94.447 Y82.926 E0.78519
G1 X95.227 Y83.045 E0.82455
G1 X95.992 Y83.243 E0.86398
G1 X96.732 Y83.517 E0.90335
G1 X97.441 Y83.865 E0.94275
G1 X98.112 Y84.283 E0.98219
G1 X98.736 Y84.766 E1.02156
G1 X99.309 Y85.309 E1.06094
G1 X99.824 Y85.908 E1.10035
G1 X99.992 Y86.148 E1.11497
G1 X100.523 Y85.489 E1.15719
G1 X101.078 Y84.928 E1.19656
G1 X101.688 Y84.425 E1.23601
G1 X102.344 Y83.987 E1.27536
G1 X103.042 Y83.617 E1.31477
G1 X103.774 Y83.32 E1.35418
G1 X104.532 Y83.099 E1.39358
G1 X105.308 Y82.955 E1.43295
G1 X106.34 Y82.886 E1.48455
G1 X109.057 Y82.886 E1.6201
G1 X109.846 Y82.926 E1.65952
G1 X110.626 Y83.045 E1.69888
G1 X111.391 Y83.243 E1.73831
G1 X112.131 Y83.517 E1.77768
G1 X112.84 Y83.865 E1.81708
G1 X113.511 Y84.283 E1.85652
G1 X114.135 Y84.766 E1.89589
G1 X114.708 Y85.309 E1.93527
G1 X115.223 Y85.908 E1.97468
G1 X115.674 Y86.556 E2.01407
G1 X116.058 Y87.247 E2.05351
G1 X116.37 Y87.972 E2.09289
G1 X116.607 Y88.725 E2.13227
G1 X116.766 Y89.499 E2.17169
G1 X116.847 Y90.284 E2.21106
G1 X116.847 Y91.074 E2.25048
G1 X116.768 Y91.86 E2.28989
G1 X116.61 Y92.633 E2.32925
G1 X116.374 Y93.387 E2.36867
G1 X116.184 Y93.855 E2.39387
G1 X107.901 Y112.483 E3.41096
G1 X107.544 Y113.188 E3.45038
G1 X107.118 Y113.852 E3.48974
G1 X106.626 Y114.47 E3.52915
G1 X106.075 Y115.036 E3.56856
G1 X105.469 Y115.542 E3.60795
G1 X104.816 Y115.985 E3.64731
G1 X104.12 Y116.36 E3.68676
G1 X103.391 Y116.662 E3.72612
G1 X102.634 Y116.889 E3.76555
G1 X101.859 Y117.038 E3.80492
G1 X100.774 Y117.114 E3.85919
G1 X98.9 Y117.114 E3.95268
G1 X98.111 Y117.074 E3.9921
G1 X97.331 Y116.955 E4.03146
G1 X96.566 Y116.757 E4.07088
G1 X95.826 Y116.483 E4.11025
G1 X95.117 Y116.135 E4.14966
G1 X94.446 Y115.717 E4.1891
G1 X93.822 Y115.234 E4.22846
G1 X93.249 Y114.691 E4.26785
G1 X92.734 Y114.092 E4.30726
G1 X92.283 Y113.444 E4.34665
G1 X91.848 Y112.661 E4.39134
G1 X83.771 Y93.75 E5.41726
G1 X83.498 Y93.009 E5.45666
G1 X83.301 Y92.244 E5.49607
G1 X83.183 Y91.463 E5.53548
G1 X83.144 Y90.674 E5.57489
G0 F3600 X83.545 Y90.595
G1 F1800 X83.594 Y89.827 E5.61328
G1 X83.723 Y89.069 E5.65164
G1 X83.93 Y88.328 E5.69003
G1 X84.212 Y87.613 E5.72837
G1 X84.568 Y86.931 E5.76675
G1 X84.992 Y86.289 E5.80514
G1 X85.48 Y85.695 E5.84349
G1 X86.028 Y85.155 E5.88187
G1 X86.629 Y84.675 E5.92025
G1 X87.276 Y84.259 E5.95862
G1 X87.963 Y83.913 E5.997
G1 X88.682 Y83.64 E6.03537
G1 X89.426 Y83.443 E6.07377
G1 X90.185 Y83.325 E6.11209
G1 X90.944 Y83.286 E6.15
G1 X93.658 Y83.286 E6.28541
G1 X94.426 Y83.326 E6.32377
G1 X95.186 Y83.445 E6.36215
G1 X95.929 Y83.643 E6.40051
G1 X96.648 Y83.917 E6.4389
G1 X97.334 Y84.264 E6.47726
G1 X97.981 Y84.68 E6.51563
G1 X98.581 Y85.161 E6.554
G1 X99.128 Y85.702 E6.59238
G1 X99.616 Y86.297 E6.63077
G1 X99.999 Y86.878 E6.66549
G1 X100.375 Y86.307 E6.6996
G1 X100.862 Y85.711 E6.738
G1 X101.408 Y85.17 E6.77634
G1 X102.007 Y84.687 E6.81473
G1 X102.653 Y84.27 E6.85309
G1 X103.339 Y83.922 E6.89147
G1 X104.057 Y83.647 E6.92983
G1 X104.8 Y83.448 E6.9682
G1 X105.56 Y83.327 E7.0066
G1 X106.34 Y83.286 E7.04557
G1 X109.057 Y83.286 E7.18112
G1 X109.825 Y83.326 E7.21948
G1 X110.585 Y83.445 E7.25786
G1 X111.328 Y83.643 E7.29623
G1 X112.047 Y83.917 E7.33461
G1 X112.733 Y84.264 E7.37297
G1 X113.38 Y84.68 E7.41134
G1 X113.98 Y85.161 E7.44971
G1 X114.527 Y85.702 E7.48809
G1 X115.015 Y86.297 E7.52648
G1 X115.438 Y86.939 E7.56484
G1 X115.793 Y87.622 E7.60324
G1 X116.074 Y88.337 E7.64157
G1 X116.28 Y89.079 E7.67999
G1 X116.408 Y89.837 E7.71834
G1 X116.457 Y90.605 E7.75673
G1 X116.425 Y91.373 E7.79508
G1 X116.314 Y92.134 E7.83345
G1 X116.124 Y92.88 E7.87186
G1 X115.819 Y93.693 E7.91518
G1 X107.536 Y112.321 E8.93227
G1 X107.187 Y113.006 E8.97062
G1 X106.769 Y113.652 E9.00901
G1 X106.287 Y114.251 E9.04737
G1 X105.744 Y114.796 E9.08575
G1 X105.148 Y115.283 E9.12415
G1 X104.505 Y115.704 E9.16249
G1 X103.822 Y116.057 E9.20085
G1 X103.105 Y116.337 E9.23925
G1 X102.364 Y116.541 E9.27759
G1 X101.605 Y116.667 E9.31598
G1 X100.774 Y116.714 E9.3575
G1 X98.9 Y116.714 E9.451
G1 X98.132 Y116.674 E9.48937
G1 X97.372 Y116.555 E9.52774
G1 X96.629 Y116.357 E9.56611
G1 X95.91 Y116.083 E9.60449
G1 X95.224 Y115.736 E9.64285
G1 X94.577 Y115.32 E9.68122
G1 X93.977 Y114.839 E9.71959
G1 X93.43 Y114.298 E9.75797
G1 X92.942 Y113.703 E9.79636
G1 X92.519 Y113.061 E9.83472
G1 X92.095 Y112.221 E9.88166
G1 X84.139 Y93.593 E10.89223
G1 X83.874 Y92.87 E10.93065
G1 X83.685 Y92.125 E10.969
G1 X83.575 Y91.364 E11.00736
G1 X83.545 Y90.595 E11.04575
G0 F3600 X83.946 Y90.518
G1 F1800 X84.004 Y89.772 E11.08308
G1 X84.141 Y89.037 E11.12038
G1 X84.356 Y88.32 E11.15773
G1 X84.646 Y87.631 E11.19502
G1 X85.008 Y86.976 E11.23236
G1 X85.438 Y86.364 E11.26968
G1 X85.931 Y85.801 E11.30701
G1 X86.48 Y85.294 E11.34429
G1 X87.081 Y84.848 E11.38163
G1 X87.726 Y84.469 E11.41896
G1 X88.408 Y84.161 E11.45629
G1 X89.119 Y83.928 E11.49362
G1 X89.851 Y83.772 E11.53096
G1 X90.944 Y83.686 E11.58566
G1 X93.658 Y83.686 E11.72106
G1 X94.405 Y83.726 E11.75838
G1 X95.143 Y83.845 E11.79567
G1 X95.865 Y84.043 E11.83302
G1 X96.561 Y84.316 E11.87032
G1 X97.224 Y84.663 E11.90766
G1 X97.847 Y85.078 E11.945
G1 X98.421 Y85.557 E11.9823
G1 X98.942 Y86.094 E12.01963
G1 X99.401 Y86.684 E12.05692
G1 X99.796 Y87.32 E12.09428
G1 X99.997 Y87.734 E12.11724
G1 X100.308 Y87.134 E12.15095
G1 X100.722 Y86.511 E12.18827
G1 X101.199 Y85.935 E12.22558
G1 X101.736 Y85.413 E12.26294
G1 X102.325 Y84.952 E12.30026
G1 X102.959 Y84.556 E12.33755
G1 X103.633 Y84.231 E12.37489
G1 X104.337 Y83.979 E12.41219
G1 X105.064 Y83.803 E12.44951
G1 X105.806 Y83.706 E12.48684
G1 X106.34 Y83.686 E12.5135
G1 X109.057 Y83.686 E12.64905
G1 X109.804 Y83.726 E12.68637
G1 X110.542 Y83.845 E12.72367
G1 X111.264 Y84.043 E12.76102
G1 X111.96 Y84.316 E12.79832
G1 X112.623 Y84.663 E12.83565
G1 X113.246 Y85.078 E12.873
G1 X113.82 Y85.557 E12.9103
G1 X114.341 Y86.094 E12.94763
G1 X114.8 Y86.684 E12.98492
G1 X115.195 Y87.32 E13.02227
G1 X115.519 Y87.994 E13.05958
G1 X115.769 Y88.699 E13.0969
G1 X115.943 Y89.427 E13.13424
G1 X116.038 Y90.169 E13.17156
G1 X116.053 Y90.917 E13.20889
G1 X115.989 Y91.662 E13.24619
G1 X115.845 Y92.396 E13.28351
G1 X115.589 Y93.224 E13.32675
G1 X107.17 Y112.158 E14.36054
G1 X106.83 Y112.824 E14.39785
G1 X106.421 Y113.451 E14.4352
G1 X105.947 Y114.03 E14.47253
G1 X105.415 Y114.555 E14.50982
G1 X104.829 Y115.02 E14.54714
G1 X104.197 Y115.42 E14.58446
G1 X103.526 Y115.751 E14.62178
G1 X102.823 Y116.007 E14.65911
G1 X102.097 Y116.188 E14.69644
G1 X101.356 Y116.29 E14.73376
G1 X100.774 Y116.314 E14.76282
G1 X98.9 Y116.314 E14.85631
G1 X98.153 Y116.274 E14.89363
G1 X97.415 Y116.155 E14.93093
G1 X96.693 Y115.957 E14.96828
G1 X95.997 Y115.684 E15.00558
G1 X95.334 Y115.337 E15.04291
G1 X94.711 Y114.922 E15.08026
G1 X94.137 Y114.443 E15.11755
G1 X93.616 Y113.906 E15.15488
G1 X93.157 Y113.316 E15.19218
G1 X92.762 Y112.68 E15.22953
G1 X92.463 Y112.063 E15.26373
G1 X84.507 Y93.435 E16.2743
G1 X84.25 Y92.733 E16.3116
G1 X84.07 Y92.007 E16.34892
G1 X83.968 Y91.266 E16.38623
G1 X83.946 Y90.518 E16.42357
G0 F3600 X84.348 Y90.443
G1 F1800 X84.415 Y89.72 E16.45979
G1 X84.561 Y89.008 E16.49605
G1 X84.784 Y88.317 E16.53228
G1 X85.081 Y87.654 E16.56852
G1 X85.45 Y87.029 E16.60473
G1 X85.885 Y86.447 E16.64098
G1 X86.382 Y85.917 E16.67723
G1 X86.933 Y85.444 E16.71346
G1 X87.534 Y85.035 E16.74973
G1 X88.175 Y84.695 E16.78593
G1 X88.85 Y84.427 E16.82216
G1 X89.551 Y84.235 E16.85843
G1 X90.268 Y84.121 E16.89465
G1 X90.944 Y84.086 E16.92842
G1 X93.658 Y84.086 E17.06382
G1 X94.383 Y84.126 E17.10004
G1 X95.1 Y84.245 E17.1363
G1 X95.799 Y84.443 E17.17255
G1 X96.472 Y84.716 E17.20878
G1 X97.111 Y85.061 E17.24501
G1 X97.708 Y85.475 E17.28126
G1 X98.256 Y85.951 E17.31747
G1 X98.749 Y86.485 E17.35373
G1 X99.179 Y87.07 E17.38995
G1 X99.605 Y87.805 E17.43234
G1 X99.991 Y88.708 E17.48133
G1 X100.328 Y87.963 E17.52212
G1 X100.664 Y87.319 E17.55836
G1 X101.068 Y86.715 E17.59462
G1 X101.536 Y86.16 E17.63084
G1 X102.063 Y85.66 E17.66708
G1 X102.641 Y85.22 E17.70332
G1 X103.264 Y84.847 E17.73955
G1 X103.924 Y84.544 E17.77578
G1 X104.614 Y84.316 E17.81203
G1 X105.324 Y84.165 E17.84825
G1 X106.34 Y84.086 E17.89909
G1 X109.057 Y84.086 E18.03464
G1 X109.782 Y84.126 E18.07087
G1 X110.499 Y84.245 E18.10713
G1 X111.198 Y84.443 E18.14337
G1 X111.871 Y84.716 E18.17961
G1 X112.51 Y85.061 E18.21583
G1 X113.107 Y85.475 E18.25208
G1 X113.655 Y85.951 E18.28829
G1 X114.148 Y86.485 E18.32455
G1 X114.578 Y87.07 E18.36077
G1 X114.942 Y87.699 E18.39703
G1 X115.235 Y88.364 E18.43329
G1 X115.453 Y89.057 E18.46953
G1 X115.593 Y89.769 E18.50573
G1 X115.654 Y90.493 E18.54198
G1 X115.635 Y91.219 E18.57821
G1 X115.537 Y91.939 E18.61447
G1 X115.36 Y92.643 E18.65068
G1 X115.088 Y93.368 E18.68931
G1 X106.805 Y111.996 E19.7064
G1 X106.473 Y112.642 E19.74264
G1 X106.073 Y113.248 E19.77886
G1 X105.609 Y113.807 E19.81511
G1 X105.086 Y114.311 E19.85134
G1 X104.511 Y114.754 E19.88756
G1 X103.89 Y115.132 E19.92383
G1 X103.232 Y115.439 E19.96005
G1 X102.544 Y115.672 E19.99629
G1 X101.835 Y115.828 E20.03251
G1 X100.774 Y115.914 E20.08562
G1 X98.9 Y115.914 E20.17911
G1 X98.175 Y115.874 E20.21534
G1 X97.458 Y115.755 E20.2516
G1 X96.759 Y115.557 E20.28784
G1 X96.086 Y115.284 E20.32408
G1 X95.447 Y114.939 E20.36031
G1 X94.85 Y114.525 E20.39655
G1 X94.302 Y114.049 E20.43276
G1 X93.809 Y113.515 E20.46902
G1 X93.379 Y112.93 E20.50525
G1 X92.953 Y112.194 E20.54767
G1 X84.874 Y93.278 E21.57387
G1 X84.626 Y92.596 E21.61007
G1 X84.455 Y91.89 E21.64631
G1 X84.362 Y91.169 E21.68258
G1 X84.348 Y90.443 E21.71881
G0 F3600 X84.752 Y90.371
G1 F1800 X84.828 Y89.671 E21.75394
G1 X84.982 Y88.985 E21.78901
G1 X85.213 Y88.32 E21.82413
G1 X85.519 Y87.685 E21.8593
G1 X85.894 Y87.09 E21.89439
G1 X86.334 Y86.54 E21.92953
G1 X86.834 Y86.044 E21.96467
G1 X87.386 Y85.608 E21.99976
G1 X87.985 Y85.238 E22.03489
G1 X88.622 Y84.937 E22.07003
G1 X89.288 Y84.711 E22.10512
G1 X89.976 Y84.562 E22.14024
G1 X90.944 Y84.486 E22.18869
G1 X93.658 Y84.486 E22.32409
G1 X94.361 Y84.526 E22.35922
G1 X95.055 Y84.645 E22.39435
G1 X95.73 Y84.843 E22.42944
G1 X96.379 Y85.115 E22.46455
G1 X96.993 Y85.46 E22.49969
G1 X97.564 Y85.871 E22.53478
G1 X98.085 Y86.345 E22.56993
G1 X98.549 Y86.875 E22.60507
G1 X98.949 Y87.454 E22.64018
G1 X99.358 Y88.246 E22.68465
G1 X99.98 Y89.7 E22.76355
G1 X100.692 Y88.128 E22.84964
G1 X101.019 Y87.504 E22.88479
G1 X101.414 Y86.922 E22.91988
G1 X101.872 Y86.387 E22.95502
G1 X102.388 Y85.909 E22.99011
G1 X102.955 Y85.491 E23.02525
G1 X103.566 Y85.141 E23.06038
G1 X104.212 Y84.862 E23.09549
G1 X104.886 Y84.659 E23.13061
G1 X105.579 Y84.533 E23.16575
G1 X106.34 Y84.486 E23.20379
G1 X109.057 Y84.486 E23.33934
G1 X109.76 Y84.526 E23.37447
G1 X110.454 Y84.645 E23.4096
G1 X111.129 Y84.843 E23.44469
G1 X111.778 Y85.115 E23.4798
G1 X112.392 Y85.46 E23.51494
G1 X112.963 Y85.871 E23.55004
G1 X113.484 Y86.345 E23.58518
G1 X113.948 Y86.875 E23.62032
G1 X114.348 Y87.454 E23.65543
G1 X114.68 Y88.075 E23.69056
G1 X114.94 Y88.729 E23.72567
G1 X115.124 Y89.409 E23.76082
G1 X115.23 Y90.105 E23.79594
G1 X115.256 Y90.808 E23.83104
G1 X115.202 Y91.51 E23.86617
G1 X115.069 Y92.201 E23.90127
G1 X114.83 Y92.962 E23.94107
G1 X106.439 Y111.833 E24.97142
G1 X106.117 Y112.459 E25.00654
G1 X105.726 Y113.044 E25.04165
G1 X105.271 Y113.582 E25.0768
G1 X104.759 Y114.064 E25.11188
G1 X104.194 Y114.485 E25.14704
G1 X103.586 Y114.84 E25.18216
G1 X102.942 Y115.123 E25.21726
G1 X102.269 Y115.331 E25.2524
G1 X101.577 Y115.462 E25.28754
G1 X100.774 Y115.514 E25.32768
G1 X98.9 Y115.514 E25.42118
G1 X98.197 Y115.474 E25.45631
G1 X97.503 Y115.355 E25.49144
G1 X96.828 Y115.157 E25.52653
G1 X96.179 Y114.885 E25.56164
G1 X95.565 Y114.54 E25.59677
G1 X94.994 Y114.129 E25.63187
G1 X94.473 Y113.655 E25.66701
G1 X94.009 Y113.125 E25.70216
G1 X93.609 Y112.546 E25.73727
G1 X93.198 Y111.749 E25.78201
G1 X85.242 Y93.121 E26.79258
G1 X85.003 Y92.459 E26.82769
G1 X84.84 Y91.774 E26.86282
G1 X84.756 Y91.075 E26.89794
G1 X84.752 Y90.371 E26.93307
G0 F3600 X85.152 Y90.983
G1 F1800 X85.157 Y90.302 E26.96704
G1 X85.242 Y89.627 E27.00098
G1 X85.405 Y88.966 E27.03495
G1 X85.645 Y88.329 E27.06891
G1 X85.958 Y87.724 E27.10289
G1 X86.339 Y87.16 E27.13685
G1 X86.784 Y86.644 E27.17084
G1 X87.286 Y86.185 E27.20478
G1 X87.839 Y85.787 E27.23877
G1 X88.435 Y85.457 E27.27276
G1 X89.065 Y85.199 E27.30672
G1 X89.721 Y85.016 E27.3407
G1 X90.393 Y84.912 E27.37463
G1 X90.944 Y84.886 E27.40215
G1 X93.658 Y84.886 E27.53755
G1 X94.338 Y84.926 E27.57153
G1 X95.008 Y85.045 E27.60548
G1 X95.66 Y85.242 E27.63946
G1 X96.284 Y85.514 E27.67342
G1 X96.872 Y85.858 E27.70741
G1 X97.416 Y86.268 E27.7414
G1 X97.907 Y86.739 E27.77534
G1 X98.341 Y87.264 E27.80932
G1 X98.71 Y87.836 E27.84328
G1 X98.99 Y88.404 E27.87488
G1 X99.82 Y90.344 E27.98015
G1 X100.128 Y90.344 E27.99552
G1 X101.057 Y88.293 E28.10785
G1 X101.373 Y87.69 E28.14181
G1 X101.759 Y87.129 E28.17579
G1 X102.207 Y86.617 E28.20973
G1 X102.713 Y86.16 E28.24375
G1 X103.268 Y85.766 E28.2777
G1 X103.866 Y85.44 E28.31168
G1 X104.497 Y85.186 E28.34562
G1 X105.155 Y85.008 E28.37963
G1 X105.828 Y84.909 E28.41356
G1 X106.34 Y84.886 E28.43913
G1 X109.057 Y84.886 E28.57468
G1 X109.737 Y84.926 E28.60867
G1 X110.407 Y85.045 E28.64262
G1 X111.059 Y85.242 E28.6766
G1 X111.683 Y85.514 E28.71056
G1 X112.271 Y85.858 E28.74455
G1 X112.815 Y86.268 E28.77853
G1 X113.306 Y86.739 E28.81248
G1 X113.74 Y87.264 E28.84646
G1 X114.109 Y87.836 E28.88042
G1 X114.408 Y88.448 E28.9144
G1 X114.633 Y89.09 E28.94834
G1 X114.782 Y89.755 E28.98234
G1 X114.851 Y90.432 E29.01629
G1 X114.841 Y91.113 E29.05027
G1 X114.751 Y91.788 E29.08424
G1 X114.583 Y92.447 E29.11817
G1 X114.357 Y93.043 E29.14997
G1 X106.074 Y111.671 E30.16706
G1 X105.761 Y112.275 E30.201
G1 X105.38 Y112.839 E30.23496
G1 X104.935 Y113.355 E30.26895
G1 X104.433 Y113.815 E30.30292
G1 X103.88 Y114.212 E30.33688
G1 X103.284 Y114.543 E30.3709
G1 X102.654 Y114.801 E30.40486
G1 X101.998 Y114.983 E30.43882
G1 X101.326 Y115.088 E30.47276
G1 X100.774 Y115.114 E30.50033
G1 X98.9 Y115.114 E30.59382
G1 X98.22 Y115.074 E30.62781
G1 X97.55 Y114.955 E30.66176
G1 X96.898 Y114.758 E30.69574
G1 X96.274 Y114.486 E30.7297
G1 X95.686 Y114.142 E30.76368
G1 X95.142 Y113.732 E30.79767
G1 X94.651 Y113.261 E30.83161
G1 X94.217 Y112.736 E30.8656
G1 X93.848 Y112.164 E30.89956
G1 X93.566 Y111.592 E30.93137
G1 X85.61 Y92.964 E31.94194
G1 X85.38 Y92.323 E31.97592
G1 X85.226 Y91.66 E32.00988
G1 X85.152 Y90.983 E32.04385
G0 F3600 X85.548 Y90.894
G1 F1800 X85.563 Y90.237 E32.07664
G1 X85.657 Y89.587 E32.10941
G1 X85.83 Y88.953 E32.14219
G1 X86.078 Y88.344 E32.175
G1 X86.398 Y87.771 E32.20774
G1 X86.786 Y87.241 E32.24051
G1 X87.235 Y86.761 E32.2733
G1 X87.739 Y86.34 E32.30607
G1 X88.291 Y85.983 E32.33886
G1 X88.882 Y85.695 E32.37166
G1 X89.503 Y85.482 E32.40442
G1 X90.145 Y85.345 E32.43717
G1 X90.944 Y85.286 E32.47714
G1 X93.658 Y85.286 E32.61254
G1 X94.314 Y85.326 E32.64533
